svgs/sharp-light/building-un.svg

<svg xmlns="http://www.w3.org/2000/svg" viewBox="0 0 384 512"><!--! Font Awesome Pro 6.6.0 by @fontawesome - https://fontawesome.com License - https://fontawesome.com/license (Commercial License) Copyright 2024 Fonticons, Inc. --><path d="M32 32l0 448 96 0 0-80 0-32 32 0 64 0 32 0 0 32 0 80 96 0 0-448L32 32zM160 480l64 0 0-80-64 0 0 80zm-32 32l-96 0L0 512l0-32L0 32 0 0 32 0 352 0l32 0 0 32 0 448 0 32-32 0-96 0-32 0-64 0-32 0zm96-272l64 0 16 0 0 16 0 64 0 16-16 0-64 0-16 0 0-16 0-64 0-16 16 0zm16 64l32 0 0-32-32 0 0 32zM80 240l16 0 64 0 16 0 0 16 0 64 0 16-16 0-64 0-16 0 0-16 0-64 0-16zm32 32l0 32 32 0 0-32-32 0zm0-176l0 64c0 8.8 7.2 16 16 16s16-7.2 16-16l0-64 0-16 32 0 0 16 0 64c0 26.5-21.5 48-48 48s-48-21.5-48-48l0-64 0-16 32 0 0 16zM224 80l8 0 9.9 0 4.4 8.8L272 140.2 272 96l0-16 32 0 0 16 0 96 0 16-16 0-8 0-9.9 0-4.4-8.8L240 147.8l0 44.2 0 16-32 0 0-16 0-96 0-16 16 0z"/></svg>

<svg xmlns="http://www.w3.org/2000/svg" viewBox="0 0 384 512"><!--! Font Awesome Pro 6.4.0 by @fontawesome - https://fontawesome.com License - https://fontawesome.com/license (Commercial License) Copyright 2023 Fonticons, Inc. --><path d="M32 32V480h96V400 368h32 64 32v32 80h96V32H32zM160 480h64V400H160v80zm-32 32H32 0V480 32 0H32 352h32V32 480v32H352 256 224 160 128zm96-272h64 16v16 64 16H288 224 208V320 256 240h16zm16 64h32V272H240v32zM80 240H96h64 16v16 64 16H160 96 80V320 256 240zm32 32v32h32V272H112zm0-176v64c0 8.8 7.2 16 16 16s16-7.2 16-16V96 80h32V96v64c0 26.5-21.5 48-48 48s-48-21.5-48-48V96 80h32V96zM224 80h8 9.9l4.4 8.8L272 140.2V96 80h32V96v96 16H288h-8-9.9l-4.4-8.8L240 147.8V192v16H208V192 96 80h16z"/></svg>
